frontend/images/prima_pagina/facebook_icon.svg

<?xml version="1.0"?><svg xmlns="http://www.w3.org/2000/svg"  viewBox="0 0 50 50" width="50px" height="50px">    <path d="M32,11h5c0.552,0,1-0.448,1-1V3.263c0-0.524-0.403-0.96-0.925-0.997C35.484,2.153,32.376,2,30.141,2C24,2,20,5.68,20,12.368 V19h-7c-0.552,0-1,0.448-1,1v7c0,0.552,0.448,1,1,1h7v19c0,0.552,0.448,1,1,1h7c0.552,0,1-0.448,1-1V28h7.222 c0.51,0,0.938-0.383,0.994-0.89l0.778-7C38.06,19.518,37.596,19,37,19h-8v-5C29,12.343,30.343,11,32,11z"/></svg>

<svg width="50" height="50" viewBox="0 0 50 50" fill="none" xmlns="http://www.w3.org/2000/svg">
<path d="M32 11H37C37.552 11 38 10.552 38 10V3.263C38 2.739 37.597 2.303 37.075 2.266C35.484 2.153 32.376 2 30.141 2C24 2 20 5.68 20 12.368V19H13C12.448 19 12 19.448 12 20V27C12 27.552 12.448 28 13 28H20V47C20 47.552 20.448 48 21 48H28C28.552 48 29 47.552 29 47V28H36.222C36.732 28 37.16 27.617 37.216 27.11L37.994 20.11C38.06 19.518 37.596 19 37 19H29V14C29 12.343 30.343 11 32 11Z" fill="#FDFCFA"/>
</svg>
